!!!COM: Bach, Johann Sebastian
!!!CDT: 1685/3//-1750/7/28/
!!!OTL@@DE: Helft mir Gott's Guete preisen
!!!AGN: 4-Part Chorale; Chorale Prelude
!!!SCT: BH 088
!!!SCT: BWV 28
**harm	**root	**kern	**kern	**kern	**kern
!	!	!bass	!tenor	!alto	!soprno
*	*Iorgan	*Iorgan	*Iorgan	*Iorgan	*Iorgan
*	*	*clefF4	*clefF4	*clefG2	*clefG2
*M4/4	*M4/4	*M4/4	*M4/4	*M4/4	*M4/4
*met(c)	*met(c)	*met(c)	*met(c)	*met(c)	*met(c)
*MM60	*MM60	*MM60	*MM60	*MM60	*MM60
*k[f#c#g#d#a#e#]	*k[f#c#g#d#a#e#]	*k[f#c#g#d#a#e#]	*k[f#c#g#d#a#e#]	*k[f#c#g#d#a#e#]	*k[f#c#g#d#a#e#]
*d#:	*d#:	*d#:	*d#:	*d#:	*d#:
*>[A,A,B]	*>[A,A,B]	*>[A,A,B]	*>[A,A,B]	*>[A,A,B]	*>[A,A,B]
*>A	*>A	*>A	*>A	*>A	*>A
i	4AA	4D#	4f#	4a#	4dd#
=1	=1	=1	=1	=1	=1
i	4AA	4d#	4f#	4a#	4dd#
Vb	4EE	4c##	4e#	4a#	4ee#
i	4AA	4d#	4d#	4a#	4ff#
Vb/-VII	4DD	4B#	4d#	4g#	4gg#
=2	=2	=2	=2	=2	=2
I/-VII	4.GG	2c#	8c#	4g#	4.ee#
.	.	.	8B#	.	.
.	.	.	8c#	8cc#	.
viiob/-VII	8FF#	.	8d#	8b#	8ff#
I/-VII;	4GG;	4C#;	4e#;	4cc#;	4gg#;
Vb	4EE	4c##	4e#	4a#	4aa#
=3	=3	=3	=3	=3	=3
i	4AA	8d#	8d#	4a#	4ff#
.	.	8c#	8e#	.	.
VI	4FF	8B	4f#	4dd#	4dd#
.	.	8A#	.	.	.
ii7b	4BB	4G#	4b	4dd#	4ee#
V	4EE	4A#	8a#	4cc##	4ee#
.	.	.	8g#	.	.
=4	=4	=4	=4	=4	=4
i;	2.AA;	2.D#;	2.f#;	2.a#;	2.dd#;
=:|!	=:|!	=:|!	=:|!	=:|!	=:|!
*>B	*>B	*>B	*>B	*>B	*>B
i	4AA	4D#	4f#	4dd#	4aa#
=5	=5	=5	=5	=5	=5
viiob	4GG#	4E#	4g#	8dd#	4gg#
.	.	.	.	8cc##	.
ib	4AA	4F#	4a#	4dd#	4ff#
ii7b	8BB	8G#	8b	8dd#	4ee#
V	8EE	8A#	8a#	8cc##	.
ivb	4DD	4B	8a#	8dd#	4dd#
.	.	.	8g#	8d#	.
=6	=6	=6	=6	=6	=6
V;	2.EE;	2.A#;	2.c##;	2.a#;	2.ee#;
V	4EE	4A#	4a#	4cc##	4ee#
!!linebreak: 2
=7	=7	=7	=7	=7	=7
i	4AA	4d#	4a#	4dd#	4ff#
Vb/III	4GG	4e#	4g#	4cc#	4gg#
III	4CC	8f#	8f#	4cc#	4aa#
.	.	8e#	8g#	.	.
i	4AA	8d#	4a#	4dd#	4ff#
.	.	8c#	.	.	.
=8	=8	=8	=8	=8	=8
Vb/-VII	4DD	8B#	4d#	4dd#	4.gg#
.	.	8A#	.	.	.
V/-VII	4DD	4G#	4g#	8cc#	.
.	.	.	.	8b#	8ff#
I/-VII;	4GG;	4c#;	4g#;	4cc#;	4ee#;
V7d/III	4GG	4B	4g#	4cc#	4ee#
=9	=9	=9	=9	=9	=9
IIIb	4CC	4A#	4c#	4cc#	4ff#
iv	4DD	4G#	8d#	4b	4gg#
.	.	.	8e#	.	.
III	4CC	4F#	8f#	4a#	4aa#
.	.	.	8g#	.	.
i	4AA	8E#	4a#	4dd#	4ff#
.	.	8D#	.	.	.
=10	=10	=10	=10	=10	=10
Ib/-VII	4GG	8E#	4g#	8dd#	4.gg#
.	.	8F#	.	8cc#	.
V/-VII	4DD	4G#	4d#	8b#	.
.	.	.	.	8a#	8ff#
I/-VII;	4GG;	4C#;	4e#;	4g#;	4ee#;
Vb	4EE	4c##	4e#	4a#	4aa#
=11	=11	=11	=11	=11	=11
i	8AA	8d#	8d#	4a#	8ff#
vb	8EE	8c#	8e#	.	8ee#
VI	4FF	8B	4f#	4dd#	4dd#
.	.	8A#	.	.	.
ii7b	4BB	4G#	4b	4dd#	4ee#
V	4EE	4A#	8a#	4cc##	4ee#
.	.	.	8g#	.	.
=12	=12	=12	=12	=12	=12
I;	2.AA;	2.D#;	2.f##;	2.a#;	2.dd#;
==	==	==	==	==	==
*-	*-	*-	*-	*-	*-
!!!ONB: m.7, b.3: bass note 8C should perhaps be 8c
!!chor2scor: -l 2 -s 0.6 -o %b.pmx
!!!YEC: Copyright 1994, David Huron
!!!YEC: Changes/Additions 2001 by Craig Stuart Sapp
!!!YEN: United States of America
!!!SMA: 371 Bach Chorales, edited by Ludwig Erk, C.F. Peters
!!!PDT: 1850, 1865
!!!ONB: Harmony and Root analysis done manually
